icons/plane.svg

<svg width="119" height="154" viewBox="0 0 119 154" fill="none" xmlns="http://www.w3.org/2000/svg">
<path d="M72.1744 86.8472C70.816 87.1514 69.493 87.715 68.2875 88.5024C65.1467 90.5037 63.3194 93.3604 64.2063 94.8826C65.0933 96.4047 68.3583 96.0154 71.4991 94.0141C72.7209 93.2545 73.8063 92.2837 74.6884 91.1617C75.0978 90.6196 75.1713 89.9442 74.8761 89.4393L73.7239 87.4619C73.4307 86.9554 72.8226 86.7145 72.1744 86.8472Z" fill="#D5D6DB"/>
<path d="M64.2875 59.8541C63.3025 60.0749 62.3431 60.4837 61.4688 61.0547C59.192 62.5055 57.8662 64.5769 58.5088 65.6797C59.1514 66.7825 61.5199 66.5 63.7965 65.0493C64.6824 64.4983 65.4693 63.794 66.1091 62.9803C66.4056 62.5874 66.4587 62.0981 66.2447 61.732L65.4105 60.3002C65.1982 59.933 64.7576 59.758 64.2875 59.8541Z" fill="#D5D6DB"/>
<path d="M51.4733 60.9845C51.254 60.9601 51.0202 61.0185 50.8174 61.148L45.4693 64.5562C45.0219 64.8404 44.8429 65.3878 45.0698 65.7789C45.1217 65.8686 45.1927 65.9451 45.279 66.0041L58.4606 75.0891L76.2941 63.7244L51.4733 60.9845Z" fill="#029BC5"/>
<path d="M107.85 59.6999L59.3181 90.252L30.6054 101.677L15.9623 104.588L14.3513 101.851L95.2464 51.9044C97.6573 50.4095 100.343 49.4919 103.032 49.2448C104.209 49.1429 105.372 49.1821 106.493 49.3609C107.487 49.5116 108.43 49.8023 109.294 50.2244C110.258 50.7026 112.092 50.7578 112.687 51.7106C112.689 51.7091 114.091 56.0835 107.85 59.6999Z" fill="#E1E6E9"/>
<path d="M59.9615 86.2094L38.9662 119.679C38.704 120.15 38.8597 120.676 39.3135 120.855C39.5921 120.965 39.933 120.922 40.2194 120.74L45.5634 117.35C46.5913 116.697 47.5014 115.869 48.2375 114.915L88.9539 67.0462L59.9615 86.2094Z" fill="#029BC5"/>
<path d="M6.9819 85.092C6.63167 84.9723 6.21489 85.0344 5.86306 85.2584L1.44557 88.0718C0.843651 88.4549 0.603801 89.1913 0.909662 89.717C0.967938 89.8169 1.04364 89.9049 1.13437 89.9773L13.5111 99.8897L26.5241 91.7615L6.9819 85.092Z" fill="#029BC5"/>
<path d="M17.6595 101.677L10.998 111.006C10.9003 111.14 10.9233 111.308 11.0492 111.382C11.1401 111.435 11.2641 111.425 11.3649 111.358L15.4931 108.742C15.5252 108.721 15.5542 108.696 15.5782 108.667L25.3118 96.832L17.6595 101.677Z" fill="#029BC5"/>
<path d="M105.697 49.7631C104.542 49.5777 103.344 49.5381 102.132 49.6447C100.951 51.2958 100.196 53.1505 99.9425 55.0239C99.924 55.4002 100.227 55.6711 100.62 55.6289C100.742 55.6157 100.864 55.5728 100.973 55.504L108.581 50.6597C107.692 50.2211 106.72 49.9193 105.697 49.7631Z" fill="#029BC5"/>
<path d="M89.1174 58.6712L94.0844 55.5343L98.7111 63.4033L93.744 66.5403L89.1174 58.6712Z" fill="#D5D6DB"/>
<path d="M85.992 61.7834C85.3935 62.1626 85.1542 62.8914 85.4581 63.4111L85.9504 64.2531C86.2743 64.7595 87.0136 64.8486 87.6018 64.4519C88.1617 64.0741 88.3871 63.3874 88.1173 62.8804L87.625 62.0384C87.3214 61.5192 86.5906 61.4049 85.992 61.7834Z" fill="#3A556A"/>
<path d="M81.5277 64.5559C80.9291 64.9351 80.6899 65.6638 80.9938 66.1836L81.4861 67.0255C81.8099 67.532 82.5492 67.6211 83.1375 67.2244C83.6973 66.8466 83.9227 66.1599 83.653 65.6529L83.1606 64.8109C82.8568 64.2918 82.126 64.1775 81.5277 64.5559Z" fill="#3A556A"/>
<path d="M77.0618 67.3293C76.4639 67.7089 76.2255 68.4368 76.5292 68.9561L77.0215 69.798C77.3453 70.3045 78.0846 70.3935 78.6729 69.9968C79.2327 69.6191 79.4581 68.9324 79.1884 68.4254L78.696 67.5834C78.3922 67.0638 77.6606 66.95 77.0618 67.3293Z" fill="#3A556A"/>
<path d="M72.5975 70.1016C71.9996 70.4813 71.7612 71.2092 72.0648 71.7285L72.5571 72.5705C72.881 73.0769 73.6202 73.166 74.2085 72.7693C74.7683 72.3915 74.9938 71.7048 74.724 71.1978L74.2317 70.3558C73.9276 69.8363 73.196 69.7225 72.5975 70.1016Z" fill="#3A556A"/>
<path d="M68.1335 72.8743C67.5353 73.2541 67.2967 73.9823 67.6005 74.5018L68.0931 75.3442C68.3968 75.8634 69.1281 75.9772 69.7264 75.5982C70.3248 75.2192 70.5637 74.491 70.26 73.9717L69.7674 73.1294C69.4645 72.6096 68.7335 72.4952 68.1348 72.8735C68.1343 72.8738 68.134 72.874 68.1335 72.8743Z" fill="#3A556A"/>
<path d="M63.6691 75.6468C63.0709 76.0266 62.8324 76.7548 63.1362 77.2743L63.6288 78.1166C63.9325 78.6359 64.6637 78.7496 65.2621 78.3706C65.8604 77.9916 66.0993 77.2635 65.7957 76.7442L65.3031 75.9019C65.0002 75.3821 64.2692 75.2676 63.6704 75.646C63.6699 75.6463 63.6694 75.6466 63.6691 75.6468Z" fill="#3A556A"/>
<path d="M59.2045 78.4193C58.6063 78.7991 58.3678 79.5273 58.6716 80.0468L59.1642 80.8891C59.4686 81.4079 60.2002 81.5204 60.7979 81.141C61.3946 80.7621 61.633 80.0355 61.3308 79.5168L60.8382 78.6745C60.5346 78.1549 59.8034 78.0406 59.2045 78.4193Z" fill="#3A556A"/>
<path d="M54.7399 81.1918C54.1417 81.5716 53.9032 82.2998 54.207 82.8193L54.6996 83.6617C55.004 84.1804 55.7356 84.293 56.3333 83.9135C56.93 83.5347 57.1684 82.808 56.8662 82.2894L56.3736 81.447C56.07 80.9274 55.3388 80.8131 54.7399 81.1918Z" fill="#3A556A"/>
<path d="M50.2756 83.9642C49.6773 84.344 49.4388 85.0722 49.7426 85.5917L50.2352 86.434C50.5396 86.9528 51.2712 87.0654 51.869 86.6859C52.4657 86.3071 52.7041 85.5804 52.4018 85.0618L51.9092 84.2195C51.6054 83.7 50.8742 83.5857 50.2756 83.9642Z" fill="#3A556A"/>
<path d="M45.8097 86.7374C45.2114 87.1164 44.9725 87.8446 45.2762 88.3639L45.2768 88.365L45.7694 89.2073C46.0738 89.7261 46.8054 89.8387 47.4031 89.4592C47.9999 89.0803 48.2382 88.3537 47.936 87.835L47.4434 86.9927C47.1399 86.473 46.4086 86.3587 45.8097 86.7374Z" fill="#3A556A"/>
<path d="M41.3466 89.5091C40.7483 89.8881 40.5094 90.6163 40.813 91.1355L40.8137 91.1366L41.3063 91.9789C41.6107 92.4977 42.3423 92.6103 42.94 92.2308C43.5368 91.852 43.7752 91.1253 43.4729 90.6067L42.9803 89.7644C42.6765 89.2449 41.9453 89.1306 41.3466 89.5091Z" fill="#3A556A"/>
</svg>

<svg id="Layer_1" data-name="Layer 1" xmlns="http://www.w3.org/2000/svg" viewBox="0 0 112.05 71.73"><defs><style>.cls-1{fill:#d5d6db;}.cls-2{fill:#029bc5;}.cls-3{fill:#e1e6e9;}.cls-4{fill:#3a556a;}</style></defs><path class="cls-1" d="M72.17,86.85a11.72,11.72,0,0,0-3.88,1.65c-3.14,2-5,4.86-4.08,6.38S68.36,96,71.5,94a12.42,12.42,0,0,0,3.19-2.85,1.57,1.57,0,0,0,.19-1.72l-1.16-2A1.41,1.41,0,0,0,72.17,86.85Z" transform="translate(-0.78 -49.19)"/><path class="cls-1" d="M64.29,59.85a8.55,8.55,0,0,0-2.82,1.2c-2.28,1.46-3.6,3.53-3,4.63s3,.82,5.29-.63A9.13,9.13,0,0,0,66.11,63a1.12,1.12,0,0,0,.13-1.25l-.83-1.43A1,1,0,0,0,64.29,59.85Z" transform="translate(-0.78 -49.19)"/><path class="cls-2" d="M51.47,61a1,1,0,0,0-.65.17l-5.35,3.41a.93.93,0,0,0-.4,1.22.56.56,0,0,0,.21.22l13.18,9.09L76.29,63.72Z" transform="translate(-0.78 -49.19)"/><path class="cls-3" d="M107.85,59.7,59.32,90.25,30.61,101.68,16,104.59l-1.61-2.74L95.25,51.9A18.06,18.06,0,0,1,103,49.24a14.22,14.22,0,0,1,3.46.12,9.61,9.61,0,0,1,2.8.86c1,.48,2.8.54,3.4,1.49C112.69,51.71,114.09,56.08,107.85,59.7Z" transform="translate(-0.78 -49.19)"/><path class="cls-2" d="M60,86.21,39,119.68a.78.78,0,0,0,.34,1.17,1,1,0,0,0,.91-.11l5.34-3.39a10.4,10.4,0,0,0,2.68-2.44L89,67.05Z" transform="translate(-0.78 -49.19)"/><path class="cls-2" d="M7,85.09a1.3,1.3,0,0,0-1.12.17L1.45,88.07a1.26,1.26,0,0,0-.54,1.65,1.09,1.09,0,0,0,.22.26l12.38,9.91,13-8.13Z" transform="translate(-0.78 -49.19)"/><path class="cls-2" d="M17.66,101.68,11,111a.24.24,0,0,0,.05.37.31.31,0,0,0,.31,0l4.13-2.62a.31.31,0,0,0,.09-.07l9.73-11.84Z" transform="translate(-0.78 -49.19)"/><path class="cls-2" d="M105.7,49.76a15.16,15.16,0,0,0-3.57-.12A12.25,12.25,0,0,0,99.94,55a.58.58,0,0,0,.68.61.79.79,0,0,0,.35-.13l7.61-4.84A10,10,0,0,0,105.7,49.76Z" transform="translate(-0.78 -49.19)"/><path class="cls-1" d="M89.12,58.67l5-3.14,4.63,7.87-5,3.14Z" transform="translate(-0.78 -49.19)"/><path class="cls-4" d="M86,61.78a1.24,1.24,0,0,0-.53,1.63l.49.84a1.16,1.16,0,0,0,1.65.2,1.25,1.25,0,0,0,.52-1.57l-.5-.84A1.14,1.14,0,0,0,86,61.78Z" transform="translate(-0.78 -49.19)"/><path class="cls-4" d="M81.53,64.56A1.25,1.25,0,0,0,81,66.18l.5.85a1.16,1.16,0,0,0,1.65.19,1.24,1.24,0,0,0,.51-1.57l-.49-.84A1.14,1.14,0,0,0,81.53,64.56Z" transform="translate(-0.78 -49.19)"/><path class="cls-4" d="M77.06,67.33A1.25,1.25,0,0,0,76.53,69l.49.84a1.17,1.17,0,0,0,1.65.2,1.26,1.26,0,0,0,.52-1.57l-.49-.85A1.15,1.15,0,0,0,77.06,67.33Z" transform="translate(-0.78 -49.19)"/><path class="cls-4" d="M72.6,70.1a1.26,1.26,0,0,0-.54,1.63l.5.84a1.16,1.16,0,0,0,1.65.2,1.25,1.25,0,0,0,.51-1.57l-.49-.84A1.14,1.14,0,0,0,72.6,70.1Z" transform="translate(-0.78 -49.19)"/><path class="cls-4" d="M68.13,72.87a1.26,1.26,0,0,0-.53,1.63l.49.84a1.16,1.16,0,0,0,1.64.26A1.26,1.26,0,0,0,70.26,74l-.49-.84a1.16,1.16,0,0,0-1.64-.26Z" transform="translate(-0.78 -49.19)"/><path class="cls-4" d="M63.67,75.65a1.23,1.23,0,0,0-.53,1.62l.49.85a1.14,1.14,0,0,0,1.63.25,1.26,1.26,0,0,0,.54-1.63l-.5-.84a1.14,1.14,0,0,0-1.63-.25Z" transform="translate(-0.78 -49.19)"/><path class="cls-4" d="M59.2,78.42a1.26,1.26,0,0,0-.53,1.63l.49.84a1.15,1.15,0,0,0,1.64.25,1.25,1.25,0,0,0,.53-1.62l-.49-.85A1.15,1.15,0,0,0,59.2,78.42Z" transform="translate(-0.78 -49.19)"/><path class="cls-4" d="M54.74,81.19a1.24,1.24,0,0,0-.53,1.63l.49.84a1.14,1.14,0,0,0,1.63.25,1.25,1.25,0,0,0,.54-1.62l-.5-.84A1.14,1.14,0,0,0,54.74,81.19Z" transform="translate(-0.78 -49.19)"/><path class="cls-4" d="M50.28,84a1.26,1.26,0,0,0-.54,1.63l.5.84a1.14,1.14,0,0,0,1.63.26,1.25,1.25,0,0,0,.53-1.63l-.49-.84A1.15,1.15,0,0,0,50.28,84Z" transform="translate(-0.78 -49.19)"/><path class="cls-4" d="M45.81,86.74a1.23,1.23,0,0,0-.53,1.62h0l.49.85a1.14,1.14,0,0,0,1.63.25,1.26,1.26,0,0,0,.54-1.63l-.5-.84A1.14,1.14,0,0,0,45.81,86.74Z" transform="translate(-0.78 -49.19)"/><path class="cls-4" d="M41.35,89.51a1.26,1.26,0,0,0-.54,1.63h0l.5.84a1.14,1.14,0,0,0,1.63.25,1.23,1.23,0,0,0,.53-1.62L43,89.76A1.14,1.14,0,0,0,41.35,89.51Z" transform="translate(-0.78 -49.19)"/></svg>
